build/img/icons/heart.svg

<svg width="38" height="33" viewBox="0 0 38 33" fill="none" xmlns="http://www.w3.org/2000/svg">
<path d="M32.3346 31.3335C32.3346 31.7756 32.159 32.1995 31.8465 32.512C31.5339 32.8246 31.11 33.0002 30.668 33.0002H7.33463C6.89261 33.0002 6.46868 32.8246 6.15612 32.512C5.84356 32.1995 5.66797 31.7756 5.66797 31.3335V16.3335H0.667969L17.8796 0.686859C18.1865 0.407655 18.5864 0.25293 19.0013 0.25293C19.4162 0.25293 19.8161 0.407655 20.123 0.686859L37.3346 16.3335H32.3346V31.3335ZM19.0013 26.3335L24.5996 20.7352C24.9479 20.387 25.2241 19.9736 25.4125 19.5186C25.601 19.0636 25.698 18.576 25.698 18.0835C25.698 17.5911 25.601 17.1034 25.4125 16.6485C25.2241 16.1935 24.9479 15.7801 24.5996 15.4319C24.2514 15.0836 23.838 14.8074 23.383 14.619C22.9281 14.4305 22.4404 14.3335 21.948 14.3335C21.4555 14.3335 20.9679 14.4305 20.5129 14.619C20.0579 14.8074 19.6445 15.0836 19.2963 15.4319L19.0013 15.7269L18.7063 15.4319C18.3581 15.0836 17.9447 14.8074 17.4897 14.619C17.0347 14.4305 16.5471 14.3335 16.0546 14.3335C15.5622 14.3335 15.0745 14.4305 14.6196 14.619C14.1646 14.8074 13.7512 15.0836 13.403 15.4319C13.0547 15.7801 12.7785 16.1935 12.5901 16.6485C12.4016 17.1034 12.3046 17.5911 12.3046 18.0835C12.3046 18.576 12.4016 19.0636 12.5901 19.5186C12.7785 19.9736 13.0547 20.387 13.403 20.7352L19.0013 26.3335Z" fill="#5CC773"/>
</svg>

<svg width="38" height="33" fill="none" xmlns="http://www.w3.org/2000/svg">
    <path d="M32.335 31.334A1.667 1.667 0 0 1 30.668 33H7.335a1.667 1.667 0 0 1-1.667-1.666v-15h-5L17.88.687a1.667 1.667 0 0 1 2.243 0l17.212 15.647h-5v15zm-13.334-5 5.599-5.599a3.747 3.747 0 0 0 0-5.303 3.747 3.747 0 0 0-5.304 0l-.295.295-.295-.295a3.747 3.747 0 0 0-5.303 0 3.747 3.747 0 0 0 0 5.303l5.598 5.599z" fill="#5CC773"/>
</svg>
